X:1
T:Hej, Vargáné káposztát főz
C:Hungarian folk song
Z:Public Domain
L:1/4
M:3/4
K:C
V:1 treble nm="Voice"
%%MIDI program 52
V:1
 D/D/ D D | d/A/ A A | A/B/ c G | F/E/ D D | F/C/ F G | A/A/ A A | D/E/ F G | F/E/ D D |] %8
w: Hej, Var- gá- né|ká- posz- tát főz,|kon- tya a- lá|ü- tött a gőz,|hány- ja- ve- ti|fa- ka- lán- ját,|ki- nek ad- ja|Zsu- zsa lá- nyát.-|

